X:190
T:Lango Lee. RH.190
T:Banks of the Dee,The. RH.190
R:Jig
S:Rev.R.Harrison’s MS,c1815,Cumbria
N:cf Morris tune, Maid of the Mill.
O:England
A:Temple Sowerby,Cumbria
Z:vmp.Simon Wilson. Review PJH, 2008.
M:6/8
L:1/8
Q:3/8=120
K:G
D|D>EF G>AB|c>ed cBA|B>GE D>EG|B>cA G2D|\
D>EF G>AB|c>ed cBA|B>GE D>EG|B>cA G2:|!
|:c|B2c d3|e>ce d>BG|B>cd e>fg|G>AG F>ED|\
c>ec B>dB|A>GA BGE|G>FE Ddc|B>cA G2:|

